!!!OTL-incipit: MAEDCHEN STEH AUF UND LASS MICH EIN
!!!ARE: Europa, Mitteleuropa, Deutschland, Juelich, Kleve
!!!SCT: Z0173
!!!YEM: Copyright 1995, estate of Helmut Schaffrath.
**kern	**text
*ICvox	*
*M3/4	*
*k[f#c#]	*
*D:	*
=1	=1
!LO:TX:a:t=Jülich. Cleve.	!
{4d	Mäd-
4f#	-chen
4a	ſteh
=2	=2
2dd	auf
4b	und
=3	=3
4b/	laß
4a	mich
4a	ein,
=4	=4
4b/	laß
4a	mich
4a}	ein,
=5	=5
{4f#	ich
4f#	will
4f#	die
=6	=6
2a	Nacht
4e	dein
=7	=7
4g	Buh-
4f#	-le
4f#	ſeyn,
=8	=8
4g	Buh-
4f#	-le
4f#}	ſeyn,
=9	=9
{4d	ich
4f#	will
4a	die
=10	=10
2dd	Nacht
4ff#	dein
=11	=11
2ee	Buh-
4cc#	-le
=12	=12
2dd	ſeyn.
4r}	.
==	==
!!!AGN: Erzaehlung, lustige Romanze
!!!ONB: ESAC (Essen Associative Code) Database: ZUCCAL
!!!AMT: simple triple
!!!AIN: vox
!!!EED: Helmut Schaffrath
!!!EEV: 1.0
!!!GTL: II. Erzahlungen, lustige Romanzen, Kinder-Lieder und episch-lyrische Volks-Lieder.
!!!URL-scan: https://www.digitale-sammlungen.de/de/view/bsb11160571?page=324
!!!ENC: Anna Maria Matuszewska
!!!EEV: 2025/01/28
*-	*-
